X:1
T:Quick Step [30], A
M:2/4
L:1/8
R:March
S:The Buttery Manuscript (c. 1784-1820, No. 539)
N:John Buttery (1784-1854) joined  the 34th Regiment in Lincoln,
N:Lincolnshire, England, in 1797 and served as a fifer until discharged in
N:1814. His large ms. contains marches, duty calls, dance tunes and airs.
N:EASMES identifies this as the Fife MS. and suggests a date of 1780, see
N:  https://www.cdss.org/elibrary/Easmes/Index.htm
Z:AK/Fiddler’s Companion
K:G
D|GB/G/ AB/c/|d/B/G/B/ A/F/E/D/|GB/G/ AB/c/|d/B/A/B/ GD|
GB/G/ AB/c/|d/B/G/B/ A/F/E/D/|GB/G/ AB/c/|d/B/c/A/ G:|
|:d|ga/g/ fg/f/|ef/g/ a/f/e/d/|ga/g/ fg/f/|e/g/f/a/ gd|
ga/g/ fg/f/|e/f/g/e/ a/f/e/d/|g/d/B/d/ e/f/g/e/|d/B/A/B/ G2:|]

